X:30
T:Daniel O'Connell (version)
R:Jig
S:Seamus Quinn, Fermanagh (fiddle)
D:From RTE 'The Pure Drop'
N:As played, but lots of open strings, and a very dotted rythmn.
M:6/8
Z:Bernie Stocks
K:D
|: d2D {G}FED | AFA BAF | GBG F2E | DFA B2c | d2D {G}FED | AFA {d}BAF | 
~G3 EAG |1 FDD DFA :|2 FDD D2d |: dcd ede | fdB AFA | {e}dcd efg | 
fdd d2A | ded {e}dcB | AFd AFD | ~G3 EAG |1 FDD D2d :|2 FDD DFA ||
<end>
<start>
